src/assets/flags/si.svg

<?xml version="1.0" encoding="UTF-8"?>
<svg xmlns="http://www.w3.org/2000/svg" xmlns:xlink="http://www.w3.org/1999/xlink" width="25px" height="px" viewBox="0 0 25 19" version="1.1">
<defs>
<clipPath id="clip1">
  <path d="M 0 0 L 25 0 L 25 19 L -0.00390625 19 Z M 0 0 "/>
</clipPath>
<clipPath id="clip2">
  <path d="M 0 12 L 25 12 L 25 19 L 0 19 Z M 0 12 "/>
</clipPath>
<clipPath id="clip3">
  <path d="M 0 0 L 25 0 L 25 19 L -0.00390625 19 Z M 0 0 "/>
</clipPath>
<clipPath id="clip4">
  <path d="M 0 6 L 25 6 L 25 13 L 0 13 Z M 0 6 "/>
</clipPath>
<clipPath id="clip5">
  <path d="M 0 0 L 25 0 L 25 19 L -0.00390625 19 Z M 0 0 "/>
</clipPath>
<clipPath id="clip6">
  <path d="M 3 2 L 9 2 L 9 10 L 3 10 Z M 3 2 "/>
</clipPath>
<clipPath id="clip7">
  <path d="M 0 0 L 25 0 L 25 19 L -0.00390625 19 Z M 0 0 "/>
</clipPath>
<clipPath id="clip8">
  <path d="M 3 2 L 9 2 L 9 9 L 3 9 Z M 3 2 "/>
</clipPath>
<clipPath id="clip9">
  <path d="M 0 0 L 25 0 L 25 19 L -0.00390625 19 Z M 0 0 "/>
</clipPath>
<clipPath id="clip10">
  <path d="M 5 4 L 7 4 L 7 5 L 5 5 Z M 5 4 "/>
</clipPath>
<clipPath id="clip11">
  <path d="M 0 0 L 25 0 L 25 19 L -0.00390625 19 Z M 0 0 "/>
</clipPath>
<clipPath id="clip12">
  <path d="M 4 5 L 9 5 L 9 9 L 4 9 Z M 4 5 "/>
</clipPath>
<clipPath id="clip13">
  <path d="M 0 0 L 25 0 L 25 19 L -0.00390625 19 Z M 0 0 "/>
</clipPath>
<clipPath id="clip14">
  <path d="M 5 3 L 8 3 L 8 4 L 5 4 Z M 5 3 "/>
</clipPath>
<clipPath id="clip15">
  <path d="M 0 0 L 25 0 L 25 19 L -0.00390625 19 Z M 0 0 "/>
</clipPath>
<clipPath id="clip16">
  <path d="M 4 7 L 8 7 L 8 8 L 4 8 Z M 4 7 "/>
</clipPath>
<clipPath id="clip17">
  <path d="M 0 0 L 25 0 L 25 19 L -0.00390625 19 Z M 0 0 "/>
</clipPath>
</defs>
<g id="surface1">
<g clip-path="url(#clip1)" clip-rule="nonzero">
<rect x="0" y="0" width="25" height="19" style="fill:rgb(100%,100%,100%);fill-opacity:1;stroke:none;"/>
</g>
<g clip-path="url(#clip2)" clip-rule="nonzero">
<g clip-path="url(#clip3)" clip-rule="nonzero">
<path style=" stroke:none;fill-rule:evenodd;fill:rgb(83.529413%,0%,0%);fill-opacity:1;" d="M -1.71875 12.664062 L 35.78125 12.664062 L 35.78125 19 L -1.71875 19 Z M -1.71875 12.664062 "/>
</g>
</g>
<g clip-path="url(#clip4)" clip-rule="nonzero">
<g clip-path="url(#clip5)" clip-rule="nonzero">
<path style=" stroke:none;fill-rule:evenodd;fill:rgb(0%,0%,74.901962%);fill-opacity:1;" d="M -1.71875 6.335938 L 35.78125 6.335938 L 35.78125 12.664062 L -1.71875 12.664062 Z M -1.71875 6.335938 "/>
</g>
</g>
<g clip-path="url(#clip6)" clip-rule="nonzero">
<g clip-path="url(#clip7)" clip-rule="nonzero">
<path style=" stroke:none;fill-rule:evenodd;fill:rgb(83.529413%,0%,0%);fill-opacity:1;" d="M 8.914062 3.453125 C 8.769531 5.738281 8.679688 6.992188 8.339844 7.570312 C 7.964844 8.195312 7.609375 8.648438 6.152344 9.203125 C 4.703125 8.648438 4.34375 8.195312 3.972656 7.570312 C 3.628906 6.992188 3.542969 5.738281 3.394531 3.453125 L 3.609375 3.375 C 4.039062 3.242188 4.363281 3.136719 4.601562 3.085938 C 4.941406 3.011719 5.234375 2.929688 6.148438 2.914062 C 7.066406 2.929688 7.359375 3.015625 7.699219 3.089844 C 7.9375 3.144531 8.269531 3.238281 8.699219 3.375 Z M 8.914062 3.453125 "/>
</g>
</g>
<g clip-path="url(#clip8)" clip-rule="nonzero">
<g clip-path="url(#clip9)" clip-rule="nonzero">
<path style=" stroke:none;fill-rule:evenodd;fill:rgb(0%,0%,74.901962%);fill-opacity:1;" d="M 8.703125 3.375 C 8.5625 5.660156 8.445312 6.707031 8.261719 7.207031 C 7.910156 8.066406 7.355469 8.539062 6.152344 8.988281 C 4.953125 8.539062 4.394531 8.066406 4.039062 7.207031 C 3.859375 6.703125 3.746094 5.660156 3.609375 3.375 C 4.035156 3.234375 4.363281 3.140625 4.601562 3.085938 C 4.941406 3.011719 5.234375 2.929688 6.148438 2.914062 C 7.066406 2.929688 7.359375 3.011719 7.699219 3.085938 C 8.039062 3.164062 8.375 3.261719 8.703125 3.375 Z M 8.703125 3.375 "/>
</g>
</g>
<g clip-path="url(#clip10)" clip-rule="nonzero">
<g clip-path="url(#clip11)" clip-rule="nonzero">
<path style=" stroke:none;fill-rule:evenodd;fill:rgb(100%,87.450981%,0%);fill-opacity:1;" d="M 6.152344 4.074219 L 6.207031 4.210938 L 6.464844 4.25 L 6.300781 4.347656 L 6.457031 4.457031 L 6.226562 4.492188 L 6.152344 4.621094 L 6.082031 4.492188 L 5.859375 4.460938 L 6.007812 4.347656 L 5.855469 4.25 L 6.097656 4.210938 Z M 6.152344 4.074219 "/>
</g>
</g>
<g clip-path="url(#clip12)" clip-rule="nonzero">
<g clip-path="url(#clip13)" clip-rule="nonzero">
<path style=" stroke:none;fill-rule:evenodd;fill:rgb(100%,100%,100%);fill-opacity:1;" d="M 8.179688 6.664062 L 8.035156 6.554688 L 7.9375 6.382812 L 7.738281 6.207031 L 7.632812 6.035156 L 7.4375 5.851562 L 7.339844 5.679688 L 7.230469 5.59375 L 7.164062 5.523438 L 6.980469 5.679688 L 6.886719 5.855469 L 6.765625 5.96875 L 6.628906 5.859375 L 6.53125 5.679688 L 6.152344 5.003906 L 5.777344 5.679688 L 5.679688 5.859375 L 5.542969 5.96875 L 5.421875 5.855469 L 5.324219 5.679688 L 5.144531 5.523438 L 5.074219 5.589844 L 4.96875 5.679688 L 4.871094 5.851562 L 4.675781 6.035156 L 4.566406 6.207031 L 4.371094 6.382812 L 4.273438 6.554688 L 4.128906 6.664062 C 4.210938 7.175781 4.449219 7.648438 4.808594 8.011719 C 5.203125 8.351562 5.660156 8.609375 6.148438 8.773438 C 6.644531 8.613281 7.105469 8.355469 7.496094 8.011719 C 7.710938 7.789062 8.105469 7.296875 8.179688 6.664062 "/>
</g>
</g>
<g clip-path="url(#clip14)" clip-rule="nonzero">
<g clip-path="url(#clip15)" clip-rule="nonzero">
<path style=" stroke:none;fill-rule:evenodd;fill:rgb(100%,87.450981%,0%);fill-opacity:1;" d="M 6.753906 3.113281 L 6.8125 3.25 L 7.070312 3.289062 L 6.902344 3.386719 L 7.0625 3.496094 L 6.832031 3.53125 L 6.757812 3.660156 L 6.683594 3.527344 L 6.464844 3.5 L 6.613281 3.386719 L 6.457031 3.289062 L 6.699219 3.25 Z M 5.546875 3.113281 L 5.605469 3.25 L 5.859375 3.285156 L 5.695312 3.382812 L 5.855469 3.492188 L 5.621094 3.527344 L 5.550781 3.65625 L 5.476562 3.527344 L 5.257812 3.496094 L 5.402344 3.382812 L 5.25 3.285156 L 5.496094 3.246094 Z M 5.546875 3.113281 "/>
</g>
</g>
<g clip-path="url(#clip16)" clip-rule="nonzero">
<g clip-path="url(#clip17)" clip-rule="nonzero">
<path style=" stroke:none;fill-rule:evenodd;fill:rgb(0%,0%,74.901962%);fill-opacity:1;" d="M 7.863281 7.53125 L 7.59375 7.53125 L 7.335938 7.515625 L 7.03125 7.367188 L 6.6875 7.367188 L 6.390625 7.515625 L 6.152344 7.535156 L 5.917969 7.515625 L 5.621094 7.367188 L 5.273438 7.367188 L 4.96875 7.515625 L 4.714844 7.535156 L 4.4375 7.53125 L 4.304688 7.304688 L 4.308594 7.296875 L 4.71875 7.367188 L 4.972656 7.347656 L 5.273438 7.195312 L 5.621094 7.195312 L 5.917969 7.34375 L 6.152344 7.367188 L 6.390625 7.34375 L 6.6875 7.195312 L 7.03125 7.195312 L 7.339844 7.34375 L 7.59375 7.367188 L 7.988281 7.292969 L 7.996094 7.308594 Z M 4.699219 7.886719 L 4.972656 7.867188 L 5.273438 7.71875 L 5.621094 7.71875 L 5.917969 7.867188 L 6.152344 7.886719 L 6.386719 7.867188 L 6.6875 7.71875 L 7.03125 7.71875 L 7.335938 7.867188 L 7.613281 7.886719 L 7.789062 7.664062 L 7.785156 7.664062 L 7.59375 7.714844 L 7.339844 7.695312 L 7.035156 7.546875 L 6.691406 7.546875 L 6.390625 7.695312 L 6.15625 7.71875 L 5.917969 7.695312 L 5.621094 7.546875 L 5.273438 7.546875 L 4.96875 7.695312 L 4.714844 7.71875 L 4.53125 7.671875 L 4.53125 7.679688 L 4.695312 7.886719 Z M 4.699219 7.886719 "/>
</g>
</g>
</g>
</svg>

<svg xmlns="http://www.w3.org/2000/svg" width="25" height="px" viewBox="0 0 25 19"><defs><clipPath id="a"><path d="M0 0h25v19H-.004Zm0 0"/></clipPath><clipPath id="b"><path d="M0 12h25v7H0Zm0 0"/></clipPath><clipPath id="c"><path d="M0 0h25v19H-.004Zm0 0"/></clipPath><clipPath id="d"><path d="M0 6h25v7H0Zm0 0"/></clipPath><clipPath id="e"><path d="M0 0h25v19H-.004Zm0 0"/></clipPath><clipPath id="f"><path d="M3 2h6v8H3Zm0 0"/></clipPath><clipPath id="g"><path d="M0 0h25v19H-.004Zm0 0"/></clipPath><clipPath id="h"><path d="M3 2h6v7H3Zm0 0"/></clipPath><clipPath id="i"><path d="M0 0h25v19H-.004Zm0 0"/></clipPath><clipPath id="j"><path d="M5 4h2v1H5Zm0 0"/></clipPath><clipPath id="k"><path d="M0 0h25v19H-.004Zm0 0"/></clipPath><clipPath id="l"><path d="M4 5h5v4H4Zm0 0"/></clipPath><clipPath id="m"><path d="M0 0h25v19H-.004Zm0 0"/></clipPath><clipPath id="n"><path d="M5 3h3v1H5Zm0 0"/></clipPath><clipPath id="o"><path d="M0 0h25v19H-.004Zm0 0"/></clipPath><clipPath id="p"><path d="M4 7h4v1H4Zm0 0"/></clipPath><clipPath id="q"><path d="M0 0h25v19H-.004Zm0 0"/></clipPath></defs><g clip-path="url(#a)"><path d="M0 0h25v19H0z" style="fill:#fff;fill-opacity:1;stroke:none"/></g><g clip-path="url(#b)"><g clip-path="url(#c)"><path d="M-1.719 12.664h37.5V19h-37.5Zm0 0" style="stroke:none;fill-rule:evenodd;fill:#d50000;fill-opacity:1"/></g></g><g clip-path="url(#d)"><g clip-path="url(#e)"><path d="M-1.719 6.336h37.5v6.328h-37.5Zm0 0" style="stroke:none;fill-rule:evenodd;fill:#0000bf;fill-opacity:1"/></g></g><g clip-path="url(#f)"><g clip-path="url(#g)"><path d="M8.914 3.453C8.77 5.738 8.68 6.993 8.34 7.57c-.375.625-.73 1.078-2.188 1.633-1.449-.555-1.808-1.008-2.18-1.633-.343-.578-.429-1.832-.577-4.117l.214-.078c.43-.133.754-.238.993-.29.34-.073.632-.155 1.546-.17.918.015 1.211.1 1.551.175q.357.081 1 .285Zm0 0" style="stroke:none;fill-rule:evenodd;fill:#d50000;fill-opacity:1"/></g></g><g clip-path="url(#h)"><g clip-path="url(#i)"><path d="M8.703 3.375c-.14 2.285-.258 3.332-.441 3.832-.352.86-.907 1.332-2.11 1.781-1.199-.449-1.757-.922-2.113-1.781-.18-.504-.293-1.547-.43-3.832.426-.14.754-.234.993-.29.34-.073.632-.155 1.546-.17.918.015 1.211.097 1.551.17q.511.12 1.004.29m0 0" style="stroke:none;fill-rule:evenodd;fill:#0000bf;fill-opacity:1"/></g></g><g clip-path="url(#j)"><g clip-path="url(#k)"><path d="m6.152 4.074.055.137.258.039-.164.098.156.109-.23.035-.075.13-.07-.13-.223-.031.149-.113-.153-.098.243-.04Zm0 0" style="stroke:none;fill-rule:evenodd;fill:#ffdf00;fill-opacity:1"/></g></g><g clip-path="url(#l)"><g clip-path="url(#m)"><path d="m8.18 6.664-.145-.11-.098-.171-.199-.176-.105-.172-.195-.183-.098-.172-.11-.086-.066-.07-.184.156-.093.175-.121.114-.137-.11-.098-.18-.379-.675-.375.676-.097.18-.137.109-.121-.114-.098-.175-.18-.157-.07.067-.105.09-.098.172-.195.183-.11.172-.195.176-.098.172-.144.11c.082.51.32.983.68 1.347.394.34.851.597 1.34.761.496-.16.956-.418 1.347-.761.215-.223.61-.715.684-1.348" style="stroke:none;fill-rule:evenodd;fill:#fff;fill-opacity:1"/></g></g><g clip-path="url(#n)"><g clip-path="url(#o)"><path d="m6.754 3.113.059.137.257.04-.168.097.16.11-.23.034-.074.13-.074-.134-.22-.027.15-.113-.157-.098.242-.039Zm-1.207 0 .058.137.254.035-.164.098.16.11-.234.034-.07.13-.074-.13-.22-.03.145-.114-.152-.098.246-.039Zm0 0" style="stroke:none;fill-rule:evenodd;fill:#ffdf00;fill-opacity:1"/></g></g><g clip-path="url(#p)"><g clip-path="url(#q)"><path d="M7.863 7.531h-.27l-.257-.015-.305-.149h-.343l-.297.149-.239.02-.234-.02-.297-.149h-.348l-.304.149-.254.02-.277-.005-.133-.226.004-.008.41.07.254-.02.3-.152h.348l.297.149.234.023.239-.023.297-.149h.343l.309.149.254.023.394-.074.008.016ZM4.7 7.887l.274-.02.3-.148h.348l.297.148.234.02.235-.02.3-.148h.344l.305.148.277.02.176-.223h-.004l-.191.05-.254-.019-.305-.148h-.344l-.3.148-.235.024-.238-.024-.297-.148h-.348l-.304.148-.254.024-.184-.047v.008l.164.207Zm0 0" style="stroke:none;fill-rule:evenodd;fill:#0000bf;fill-opacity:1"/></g></g></svg>
